X: 36753
T: Sheila Coyle's
R: reel
M: 4/4
K: Dmajor
|:FA A2 FADF|ADFA BAGF|GBBA B3d|ABdf efdB|
FA A2 FADF|ADFA BAGF|GB B2 AF F2|1 EFGE FA D2:|2 EFGE FADB:|
|:effe f3e|defd BAFA|ce e2 fe e2|B3A BAFA|
effe f3e|defd BAFA|GB B2 AF F2|1 EFGE FADB:|2 EFGE FAD2||

